!!!!SEGMENT: pl-kk--kk-i-11--005_anonim--o-salutaris-hostia.krn
!!!cenid: 16xx:1244
!!!COM: Anonim
!!!COM-rismID: pe30004985
!!!CDT:
!!!CNT:
!!!OTL: O salutaris hostia
!!!PDT:
!!!AGN: Sacred
!!!SMS-siglum: PL-Kk
!!!SMS-shelfmark: Kk.I.11
!!!SMS-shelfwork: 005 W
!!!SMS-variant:
!!!SMS-altvar:
!!!NIFC-rismSourceID: 1001154115
!!!NIFC-rismChildID: 1001154155
!!!NIFC-islandoraID: pl-kk:2582
!!!URL-pdf-islandora: https://repozytorium.nifc.pl/islandora/object/pl-kk%3A2582/datastream/PDF/view
!!!URL-scan: https://polish.musicsources.pl/pl/lokalizacje/galeria/rekopisy/5745 @EN{Scan on Polish Music Sources Website} @PL{Skany w portalu Dziedzictwo Muzyki Polskiej w otwartym dostępie}
!!!ONB-nifc: UWAGA: T (skan 0021, prawa strona), B (0017)
!!!AIN: 1 bass 1 tenor
!!!key:
**kern	**text	**kern	**text
*part2	*part2	*part1	*part1
*staff2	*staff2	*staff1	*staff1
*Ibass	*	*Itenor	*
*I"[Bassus]	*	*I"[Tenor]	*
*I'B	*	*I'T	*
*clefF4	*	*clefC4	*
*k[b-]	*	*k[b-]	*
*F:	*	*F:	*
*M2/1	*	*M2/1	*
*met(c|)	*	*met(c|)	*
*all\center	*	*all\center	*
*all/center	*	*all/center	*
=1-	=1-	=1-	=1-
0r	.	1F	O
*	*	*lig	*
.	.	1G	Sa-
=2-	=2-	=2-	=2-
1r	.	1F	.
*	*	*Xlig	*
1C	O	1E	.
=3-	=3-	=3-	=3-
2.D/	Sa-	1F	-lu-
4D/	-lu-	.	.
2C/	-ta-	1G	-ta-
2GG/	-ris	.	.
=4-	=4-	=4-	=4-
2.D/	Ho-	1F	-ris
4C/	.	.	.
*	*	*lig	*
4BB-/	.	1G	Ho-
4AA/	.	.	.
2GG/	-ſti-	.	.
=5-	=5-	=5-	=5-
*custos:F	*	*	*
2FF/	-a	1A	.
!LO:LB:g=original	!	!	!
2F\	/O	.	.
*	*	*Xlig	*
*	*	*lig	*
2.BB-/	Sa-	1B-	.
4BB-/	-lu-	.	.
=6-	=6-	=6-	=6-
2FF/	-ta-	1A	.
2FF/	-ris	.	.
*	*	*Xlig	*
2.C/	Ho-	1G	.
4C/	-ſti-	.	.
=7-	=7-	=7-	=7-
1FF	-a/	1F	-ſti-
*	*	*custos:A	*
1r	.	1F	-a
=8-	=8-	=8-	=8-
1F	Quae	1A	Quae
2E\	Cae-	1c	Cae-
2C/	-li	.	.
=9-	=9-	=9-	=9-
2.GG/	pan-	1B-	-li
*custos:AA	*	*	*
4GG/	-di	.	.
*	*	*lig	*
!LO:LB:g=original	!	!	!
4AA/	O-	1A	pan-
4GG/	.	.	.
2FF/	.	.	.
=10-	=10-	=10-	=10-
2.C/	.	1G	.
4BB-/	.	.	.
*	*	*Xlig	*
4AA/	.	1F	-dis
4GG/	.	.	.
2FF/	.	.	.
=11-	=11-	=11-	=11-
1.C	.	1G	O-
.	.	1E	-ſti-
2C/	-ſti-	.	.
=12-	=12-	=12-	=12-
1FF	-um	1F,	-um
0r	.	1A	Bel-
=13-	=13-	=13-	=13-
.	.	1c	-la
2.F\	Bel-	1c	prae-
4F\	-la	.	.
=14-	=14-	=14-	=14-
2D/	prae-	1d	-munt
*custos:C	*	*	*
2BB-/	-mu(n)t	.	.
*	*	*custos:B	*
!LO:LB:g=original	!	!	!
2C/	ho-	1c	ho-
2AA/	.	.	.
=15-	=15-	=15-	=15-
2.GG/	-ſti-	1B-	-ſti-
4GG/	-li-	.	.
2AA/	-a	1A	-li-
2FF/	ho-	.	.
=16-	=16-	=16-	=16-
2.C/	-ſti-	1G	-a
4C/	-li-	.	.
*	*	*lig	*
1FF	-a	1A	.
=17-	=17-	=17-	=17-
1r	.	1F,	.
*	*	*Xlig	*
1BB-	Da	1F	Da
=18-	=18-	=18-	=18-
*	*	*lig	*
2.GG/	ro-	1G	ro-
4GG/	-bur	.	.
2AA/	fer	1F	.
2FF/	au-	.	.
*custos:C	*	*	*
*	*	*Xlig	*
=19-	=19-	=19-	=19-
!LO:LB:g=original	!	!	!
2.C/	-xi-	1E	.
4C/	-li-	.	.
2FF/	-um	1F	-bur
2F\	/Da	.	.
=20-	=20-	=20-	=20-
2E\	ro-	1G	fer
2C/	-bur	.	.
2BB-/	fer	1F	au-
2BB-/	au-	.	.
=21-	=21-	=21-	=21-
*	*	*lig	*
2.GG/	-xi-	1G	-xi-
4GG/	-li-	.	.
2FF/	-um/	1A	.
2F\	Da	.	.
*	*	*Xlig	*
=22-	=22-	=22-	=22-
*	*	*lig	*
2BB-/	ro-	1B-	.
2GG/	-bur	.	.
*	*	*custos:G	*
2AA/	fer	1A	.
2FF/	au-	.	.
*custos:C	*	*	*
*	*	*Xlig	*
=23-	=23-	=23-	=23-
!LO:LB:g=original	!	!	!
2.C/	-xi-	1G	.
4C/	-li-	.	.
2FF/	-u(m)	1F	-li-
2F\	/Da	.	.
=24-	=24-	=24-	=24-
!	!	!LO:TX:a:t=Laus Deo.	!
2D/	ro-	00F;;	-um.
2BB-/	-bur	.	.
1FF	fer au-	.	.
=25-	=25-	=25-	=25-
2.BB-/	-xi-	.	.
4BB-/	-li-	.	.
!LO:N:vis=0	!	!	!
1FF;	-um/	.	.
==	==	==	==
*-	*-	*-	*-
!!!system-decoration: [(s1,s2)]
!!!ENC: Kamil Watkowski
!!!END: 2021-07-10
!!!YEC: Copyright 2022 Narodowy Instytut Fryderyka Chopina (https://polishscores.org)
!!!YEM: License CC-BY-4.0 (https://creativecommons.org/licenses/by/4.0)
